X:46
T:Jig of Slurs
M:6/8
L:1/8
C:Pipe major G. S. McLennan
R:Jig
K:D
B |\
"D"Add dcd | "G"Bdd "D"Add | "G"Bdd "D"Add | "Em"Bee "A7"edB | "D"Add dcd |
"G"Bdd "D"Add | "G"Bdd "A7"cde | "D"fdc d2 :||: B | "D"Aff fef | aff fed | "G"Bee "A"ede |
"D"fed edB | "D"Aff fef | aff fed | "G"Bdd "A7"cde | "D"fdc d2 :||: B | "G"G>gg gfg |
"Em"age "G"gdB | "G"G>gg gfg | "Em"age "G"g2B | "G"G>gg gfg | "Em"age "G"gdB |
"Em"Bee "C"efg | "Bm"fed "Em"e2 :||: B | "G"GBB Bdd | "G"dee "Bm"edB | "G"GBB Bdd |
"Bm"dee efg | "G"GBB Bdd | "G"dee "Em"edB | "Em"Bee "C"efg | "Bm"fed "Em"e2 :|
